pix_core/f/oth.svg

<svg fill="none" preserveAspectRatio="xMinYMid meet" viewBox="0 0 24 24" xmlns="http://www.w3.org/2000/svg"><g fill="#fff"><path clip-rule="evenodd" d="m4.5 5c0-1.38071 1.11929-2.5 2.5-2.5h6.1716c.663 0 1.2989.26339 1.7677.73223l3.8285 3.82843c.4688.46884.7322 1.10473.7322 1.76777v10.17157c0 1.3807-1.1193 2.5-2.5 2.5h-10c-1.38071 0-2.5-1.1193-2.5-2.5 0-.2761.22386-.5.5-.5s.5.2239.5.5c0 .8284.67157 1.5 1.5 1.5h10c.8284 0 1.5-.6716 1.5-1.5v-10c0-.27614-.2239-.5-.5-.5h-3c-.8284 0-1.5-.67157-1.5-1.5v-3c0-.27614-.2239-.5-.5-.5h-6c-.82843 0-1.5.67157-1.5 1.5v6c0 .2761-.22386.5-.5.5s-.5-.2239-.5-.5zm10 2v-2.79289l3.2929 3.29289h-2.7929c-.2761 0-.5-.22386-.5-.5z" fill-rule="evenodd"/><path clip-rule="evenodd" d="m5.06533 12.5757c-.27973 0-.53847.0501-.77484.1517-.23416.1015-.4381.2494-.60974.4417-.16984.1927-.30002.4242-.39163.6928-.09214.2683-.13726.5706-.13726.9056v.2021c0 .3332.04537.636.1374.906.09365.2687.22624.5007.39811.6932.17164.1903.37507.3366.60898.438.23637.1016.49511.1517.77484.1517.28145 0 .54023-.05.77484-.1517.23599-.1014.43979-.2481.60974-.4388.16989-.1927.3001-.4243.39171-.6931.09204-.2699.13719-.5721.13719-.9053v-.2021c0-.3351-.04611-.6375-.14026-.9058-.09166-.2687-.22287-.5002-.3947-.6928-.16988-.1926-.3733-.34-.60939-.4415-.23465-.1017-.49348-.1517-.77499-.1517zm-.34899.9795c.09898-.052.21447-.0793.34899-.0793.13453 0 .25001.0273.34899.0793l.0012.0006c.09884.0503.18417.1263.25572.231.07174.105.12809.2376.16694.4004.03878.1625.05879.3536.05879.5744v.208c0 .2187-.01999.41-.05882.5746-.03891.163-.09448.2971-.16483.4045-.06959.1042-.154.1811-.25313.2332-.09899.052-.21447.0793-.349.0793-.13452 0-.25001-.0273-.34899-.0793-.09939-.0522-.18502-.1294-.25669-.2342-.07196-.1071-.12831-.2409-.16713-.4035-.03884-.1646-.05883-.3559-.05883-.5746v-.208c0-.2208.02002-.4119.05879-.5744.03889-.163.09434-.2957.16433-.4009.07174-.1048.15683-.181.25367-.2311z" fill-rule="evenodd"/><path d="m7.35752 12.6343c-.05523 0-.1.0447-.1.1v.6885c0 .0552.04477.1.1.1h1.19199v3.4771c0 .0552.04477.1.1.1h.87598c.05523 0 .1-.0448.1-.1v-3.4771h1.21251c.0552 0 .1-.0448.1-.1v-.6885c0-.0553-.0448-.1-.1-.1z"/><path d="m11.539 12.7343c0-.0553.0447-.1.1-.1h.8789c.0552 0 .1.0447.1.1v1.6373h1.5168v-1.6373c0-.0553.0447-.1.1-.1h.8759c.0553 0 .1.0447.1.1v4.2656c0 .0552-.0447.1-.1.1h-.8759c-.0553 0-.1-.0448-.1-.1v-1.7428h-1.5168v1.7428c0 .0552-.0448.1-.1.1h-.8789c-.0553 0-.1-.0448-.1-.1z"/></g></svg>

<svg viewBox="0 0 24 24" fill="none" xmlns="http://www.w3.org/2000/svg" preserveAspectRatio="xMinYMid meet">
<path fill-rule="evenodd" clip-rule="evenodd" d="M4.5 5C4.5 3.61929 5.61929 2.5 7 2.5H13.1716C13.8346 2.5 14.4705 2.76339 14.9393 3.23223L18.7678 7.06066C19.2366 7.5295 19.5 8.16539 19.5 8.82843V19C19.5 20.3807 18.3807 21.5 17 21.5H7C5.61929 21.5 4.5 20.3807 4.5 19C4.5 18.7239 4.72386 18.5 5 18.5C5.27614 18.5 5.5 18.7239 5.5 19C5.5 19.8284 6.17157 20.5 7 20.5H17C17.8284 20.5 18.5 19.8284 18.5 19V9C18.5 8.72386 18.2761 8.5 18 8.5H15C14.1716 8.5 13.5 7.82843 13.5 7V4C13.5 3.72386 13.2761 3.5 13 3.5H7C6.17157 3.5 5.5 4.17157 5.5 5V11C5.5 11.2761 5.27614 11.5 5 11.5C4.72386 11.5 4.5 11.2761 4.5 11V5ZM14.5 7V4.20711L17.7929 7.5H15C14.7239 7.5 14.5 7.27614 14.5 7Z" fill="#fff"/>
<path fill-rule="evenodd" clip-rule="evenodd" d="M5.06533 12.5757C4.7856 12.5757 4.52686 12.6258 4.29049 12.7274C4.05633 12.8289 3.85239 12.9768 3.68075 13.1691C3.51091 13.3618 3.38073 13.5933 3.28912 13.8619C3.19698 14.1302 3.15186 14.4325 3.15186 14.7675V14.9696C3.15186 15.3028 3.19723 15.6056 3.28926 15.8756C3.38291 16.1443 3.5155 16.3763 3.68737 16.5688C3.85901 16.7591 4.06244 16.9054 4.29635 17.0068C4.53272 17.1084 4.79146 17.1585 5.07119 17.1585C5.35264 17.1585 5.61142 17.1085 5.84603 17.0068C6.08202 16.9054 6.28582 16.7587 6.45577 16.568C6.62566 16.3753 6.75587 16.1437 6.84748 15.8749C6.93952 15.605 6.98467 15.3028 6.98467 14.9696V14.7675C6.98467 14.4324 6.93856 14.13 6.84441 13.8617C6.75275 13.593 6.62154 13.3615 6.44971 13.1689C6.27983 12.9763 6.07641 12.8289 5.84032 12.7274C5.60567 12.6257 5.34684 12.5757 5.06533 12.5757ZM4.71634 13.5552C4.81532 13.5032 4.93081 13.4759 5.06533 13.4759C5.19986 13.4759 5.31534 13.5032 5.41432 13.5552L5.41552 13.5558C5.51436 13.6061 5.59969 13.6821 5.67124 13.7868C5.74298 13.8918 5.79933 14.0244 5.83818 14.1872C5.87696 14.3497 5.89697 14.5408 5.89697 14.7616V14.9696C5.89697 15.1883 5.87698 15.3796 5.83815 15.5442C5.79924 15.7072 5.74367 15.8413 5.67332 15.9487C5.60373 16.0529 5.51932 16.1298 5.42019 16.1819C5.3212 16.2339 5.20572 16.2612 5.07119 16.2612C4.93667 16.2612 4.82118 16.2339 4.7222 16.1819C4.62281 16.1297 4.53718 16.0525 4.46551 15.9477C4.39355 15.8406 4.3372 15.7068 4.29838 15.5442C4.25954 15.3796 4.23955 15.1883 4.23955 14.9696V14.7616C4.23955 14.5408 4.25957 14.3497 4.29834 14.1872C4.33723 14.0242 4.39268 13.8915 4.46267 13.7863C4.53441 13.6815 4.6195 13.6053 4.71634 13.5552Z" fill="#fff"/>
<path fill="#fff" d="M7.35752 12.6343C7.30229 12.6343 7.25752 12.679 7.25752 12.7343V13.4228C7.25752 13.478 7.30229 13.5228 7.35752 13.5228H8.54951V16.9999C8.54951 17.0551 8.59428 17.0999 8.64951 17.0999H9.52549C9.58072 17.0999 9.62549 17.0551 9.62549 16.9999V13.5228H10.838C10.8932 13.5228 10.938 13.478 10.938 13.4228V12.7343C10.938 12.679 10.8932 12.6343 10.838 12.6343H7.35752Z" fill="#fff"/>
<path fill="#fff" d="M11.539 12.7343C11.539 12.679 11.5837 12.6343 11.639 12.6343H12.5179C12.5731 12.6343 12.6179 12.679 12.6179 12.7343V14.3716H14.1347V12.7343C14.1347 12.679 14.1794 12.6343 14.2347 12.6343H15.1106C15.1659 12.6343 15.2106 12.679 15.2106 12.7343V16.9999C15.2106 17.0551 15.1659 17.0999 15.1106 17.0999H14.2347C14.1794 17.0999 14.1347 17.0551 14.1347 16.9999V15.2571H12.6179V16.9999C12.6179 17.0551 12.5731 17.0999 12.5179 17.0999H11.639C11.5837 17.0999 11.539 17.0551 11.539 16.9999V12.7343Z" fill="#fff"/>
</svg>
